symbols/be/PVR-{110}.svg

<?xml version="1.0" encoding="UTF-8" standalone="no"?>
<!-- Initially created with Inkscape, optimized by hand -->

<svg
   version="1.1"
   width="20"
   height="17.320999"
   id="svg1"
   xmlns="http://www.w3.org/2000/svg"
   xmlns:svg="http://www.w3.org/2000/svg">
  <defs
     id="defs1" />
  <path
     id="Fond"
     d="M 20,17.320999 H 0 L 10,-1.2114258e-6 Z"
     fill="#0b9b7b"
     style="stroke-width:0.1" />
  <path
     style="font-size:10.6667px;font-family:Isonorm;-inkscape-font-specification:'Isonorm, Normal';fill:#ffffff;fill-rule:evenodd;stroke-width:0.377953;stroke-linejoin:bevel"
     d="M 9.555406,15.130489 V 8.7411348 c 0,-0.106667 -0.032,-0.192 -0.106667,-0.266667 -0.064,-0.07467 -0.362668,-0.149334 -0.501335,-0.01067 l -1.429338,1.429338 c -0.149334,0.1493342 -0.096,0.4266682 0.01067,0.5333352 0.096,0.106667 0.352001,0.128 0.490668,-0.01067 L 8.84074,9.5837988 V 15.14115 c 0,0.192 0.170667,0.352001 0.362668,0.352001 0.192,0 0.352001,-0.160001 0.352001,-0.362668 z m 3.018664,0 V 8.7411348 c 0,-0.106667 -0.032,-0.192 -0.10667,-0.266667 -0.064,-0.07467 -0.36266,-0.149334 -0.50133,-0.01067 l -1.42934,1.429338 c -0.14933,0.1493342 -0.096,0.4266682 0.0107,0.5333352 0.096,0.106667 0.352,0.128 0.49067,-0.01067 L 11.85943,9.5837988 V 15.14115 c 0,0.192 0.17067,0.352001 0.36267,0.352001 0.192,0 0.352,-0.160001 0.352,-0.362668 z"
     id="text1"
     aria-label="11" />
</svg>

<?xml version="1.0" encoding="UTF-8"?>
<svg xmlns="http://www.w3.org/2000/svg" xmlns:xlink="http://www.w3.org/1999/xlink" width="20" height="17.320999" viewBox="0 0 20 17.320999">
<path fill-rule="nonzero" fill="rgb(4.313725%, 60.784314%, 48.235294%)" fill-opacity="1" d="M 20 17.320312 L 0 17.320312 L 10 0 Z M 20 17.320312 "/>
<path fill-rule="evenodd" fill="rgb(100%, 100%, 100%)" fill-opacity="1" d="M 9.554688 15.128906 L 9.554688 8.742188 C 9.554688 8.632812 9.523438 8.550781 9.449219 8.472656 C 9.382812 8.398438 9.085938 8.324219 8.949219 8.464844 L 7.519531 9.894531 C 7.367188 10.042969 7.421875 10.320312 7.527344 10.425781 C 7.625 10.53125 7.878906 10.554688 8.019531 10.414062 L 8.839844 9.582031 L 8.839844 15.140625 C 8.839844 15.332031 9.011719 15.492188 9.203125 15.492188 C 9.394531 15.492188 9.554688 15.332031 9.554688 15.128906 Z M 12.574219 15.128906 L 12.574219 8.742188 C 12.574219 8.632812 12.542969 8.550781 12.46875 8.472656 C 12.402344 8.398438 12.105469 8.324219 11.964844 8.464844 L 10.535156 9.894531 C 10.386719 10.042969 10.441406 10.320312 10.546875 10.425781 C 10.644531 10.53125 10.898438 10.554688 11.039062 10.414062 L 11.859375 9.582031 L 11.859375 15.140625 C 11.859375 15.332031 12.03125 15.492188 12.222656 15.492188 C 12.414062 15.492188 12.574219 15.332031 12.574219 15.128906 Z M 12.574219 15.128906 "/>
</svg>
